X:1541
L:1/8
Q:1/8=300
M:2/2
K:D
 Bc | dedc BAFE | FDB,C DEFA | d2 cd BAFE | FBBA B2 Bc | dedc BAFE | FDB,C DEFA | BdcA BFFE | 
 FDB,C D2 :| DE | FDFA d3 f | edBc defg | ecdB AFFE | FBBA B2 Bc | dedc BAFE | FDB,C DEFA | 
 BdcA BFFE | FDB,C D2 :|

